libs/ui/packages/crypto-icons/src/svg/STON.svg

<svg width="24" height="24" viewBox="0 0 24 24" fill="none" xmlns="http://www.w3.org/2000/svg">
<path d="M14.2612 16.0474C14.3704 15.9745 14.5216 16.0214 14.5664 16.1419L16.2638 20.708C16.3184 20.8549 16.1807 21.0009 16.024 20.9626L9.77457 19.4356C9.60645 19.3946 9.56663 19.1818 9.70921 19.0866L14.2612 16.0474Z" fill="white"/>
<path d="M15.3571 15.0398C15.3492 15.0187 15.3453 14.9965 15.3453 14.9742V10.3722C15.3453 10.242 15.2154 10.1484 15.086 10.1853L9.7309 11.7116C9.60145 11.7485 9.47168 11.6549 9.47168 11.5247V8.55071C9.47168 8.48989 9.50106 8.43251 9.55119 8.39571L16.5297 3.26694C16.6267 3.19566 16.7665 3.2229 16.8272 3.32485L21.0428 10.4023C21.0727 10.4524 21.0779 10.5128 21.0571 10.567L17.5079 19.8098C17.4424 19.9803 17.1919 19.9791 17.1283 19.8078L15.3571 15.0398Z" fill="white"/>
<path d="M7.68487 3.66535C7.71856 3.63353 7.76272 3.61406 7.80976 3.61039L14.2506 3.10375C14.4518 3.08794 14.5499 3.33511 14.3892 3.45298L8.89944 7.48073C8.84868 7.51805 8.7826 7.52993 8.72119 7.51286L5.10612 6.50786C4.95744 6.46654 4.91018 6.28589 5.02072 6.18146L7.68487 3.66535Z" fill="white"/>
<path d="M4.09988 7.51942C4.11529 7.40052 4.23714 7.32317 4.35642 7.35636L8.18773 8.42474C8.27418 8.44884 8.33362 8.52513 8.33362 8.61187V12.9375C8.33362 13.0676 8.46358 13.1612 8.59304 13.1242L13.9109 11.6047C14.0404 11.5678 14.1703 11.6613 14.1703 11.7916V14.5391C14.1703 14.6028 14.138 14.6626 14.0836 14.699L8.11887 18.6976C8.04111 18.7497 7.93616 18.7426 7.86658 18.6807L3.26907 14.5871C3.22119 14.5444 3.19758 14.4822 3.20566 14.4197L4.09988 7.51942Z" fill="white"/>
</svg>

<svg xmlns="http://www.w3.org/2000/svg" width="24" height="24" viewBox="0 0 24 24" fill="none"><path fill="#fff" d="M14.261 16.047a.205.205 0 0 1 .305.095l1.698 4.566c.054.147-.083.293-.24.255l-6.25-1.527a.192.192 0 0 1-.065-.35z"/><path fill="#fff" d="M15.357 15.04a.2.2 0 0 1-.012-.066v-4.602c0-.13-.13-.224-.259-.187l-5.355 1.527c-.13.037-.26-.057-.26-.187V8.55c0-.061.03-.118.08-.155l6.979-5.13a.206.206 0 0 1 .297.059l4.216 7.077c.03.05.035.11.014.165l-3.55 9.243c-.065.17-.315.17-.379-.002zM7.685 3.665a.2.2 0 0 1 .125-.055l6.44-.506c.202-.016.3.231.14.349L8.9 7.481a.2.2 0 0 1-.179.032L5.106 6.508a.192.192 0 0 1-.085-.327z"/><path fill="#fff" d="M4.1 7.52a.202.202 0 0 1 .256-.164l3.832 1.069c.086.024.146.1.146.187v4.326c0 .13.13.223.259.186l5.318-1.52c.13-.036.26.057.26.188v2.747a.2.2 0 0 1-.087.16l-5.965 3.999a.21.21 0 0 1-.252-.017l-4.598-4.094a.19.19 0 0 1-.063-.167z"/></svg>
